Newaita-dark/apps/64/com.github.peteruithoven.resizer.svg

<svg height="64pt" viewBox="0 0 64 64" width="64pt" xmlns="http://www.w3.org/2000/svg" xmlns:xlink="http://www.w3.org/1999/xlink"><linearGradient id="a" gradientUnits="userSpaceOnUse" x1="31.75304" x2="31.75304" y1="56.067868" y2="58.71395600006"><stop offset="0" stop-opacity=".27451"/><stop offset="1" stop-opacity="0"/></linearGradient><linearGradient id="b"><stop offset="0" stop-opacity=".313726"/><stop offset=".222222" stop-opacity=".27451"/><stop offset="1" stop-opacity="0"/></linearGradient><radialGradient id="c" cx="450.908936" cy="189.579361" gradientTransform="matrix(.00000035 -.156265 -.281277 -.0000002 106.907381 127.190661)" gradientUnits="userSpaceOnUse" r="21.166656" xlink:href="#b"/><radialGradient id="d" cx="450.908936" cy="189.579361" gradientTransform="matrix(-.00000035 .156265 .281277 .0000002 -43.401323 -15.054962)" gradientUnits="userSpaceOnUse" r="21.166656" xlink:href="#b"/><radialGradient id="e" cx="450.908936" cy="189.579361" gradientTransform="matrix(-.00000035 -.156265 .281277 -.0000002 -43.401323 127.190661)" gradientUnits="userSpaceOnUse" r="21.166656" xlink:href="#b"/><radialGradient id="f" cx="450.908936" cy="189.579361" gradientTransform="matrix(.00000035 .156265 -.281277 .0000002 106.907377 -15.054963)" gradientUnits="userSpaceOnUse" r="21.166656" xlink:href="#b"/><linearGradient id="g" gradientTransform="matrix(.150699 0 0 .434824 -11.708026 67.282696)" gradientUnits="userSpaceOnUse" x1="305.954559" x2="305.954559" y1="-31.87709" y2="-135.329163"><stop offset="0" stop-color="#42a5f5"/><stop offset="1" stop-color="#9fa8da"/></linearGradient><linearGradient id="h" gradientUnits="userSpaceOnUse" x1="31.753056" x2="31.753056" y1="56.06792690428" y2="36.22226488664"><stop offset="0" stop-color="#37474f"/><stop offset="1" stop-color="#455a64"/></linearGradient><linearGradient id="i"><stop offset="0" stop-color="#fdd835"/><stop offset="1" stop-color="#fff176"/></linearGradient><linearGradient id="j" gradientUnits="userSpaceOnUse" x1="46.362614" x2="46.362614" xlink:href="#i" y1="24.31486888664" y2="16.37660488664"/><linearGradient id="k" gradientTransform="matrix(.029926 0 0 .0266446 .680755 11.154726)" gradientUnits="userSpaceOnUse" x1="1400" x2="1400" xlink:href="#i" y1="695.118103" y2="455.118103"/><linearGradient id="l" gradientUnits="userSpaceOnUse" x1="31.75305569076" x2="31.80913" y1="51.88589982588" y2="9.76138538278"><stop offset="0" stop-color="#bdbdbd"/><stop offset="1" stop-color="#e0e0e0"/></linearGradient><path d="m9.261719 56.066406h44.984375v2.574219h-44.984375zm0 0" fill="url(#a)"/><path d="m54.246094 56.066406h5.289062v-2.644531h-5.289062zm0 0" fill="url(#c)"/><path d="m9.261719 56.066406h-5.292969v2.648438h5.292969zm0 0" fill="url(#d)"/><path d="m9.261719 56.066406h-5.292969v-2.644531h5.292969zm0 0" fill="url(#e)"/><path d="m54.246094 56.066406h5.289062v2.648438h-5.289062zm0 0" fill="url(#f)"/><path d="m6.613281 8.4375h50.277344c1.460937 0 2.644531 1.183594 2.644531 2.648438v42.335937c0 1.460937-1.183594 2.644531-2.644531 2.644531h-50.277344c-1.460937 0-2.644531-1.183594-2.644531-2.644531v-42.335937c0-1.464844 1.183594-2.648438 2.644531-2.648438zm0 0" fill="url(#g)"/><path d="m3.96875 41.515625v11.90625c0 1.464844 1.179688 2.644531 2.644531 2.644531h50.277344c1.464844 0 2.644531-1.179687 2.644531-2.644531v-11.90625c-11 6.4375-14.570312-.734375-19.054687-1.910156-4.800781-1.257813-5.71875 4.453125-10.5625 3.871093-4.84375-.582031-11.015625-7.882812-15.480469-7.425781-4.460938.460938-6.707031 3.09375-10.46875 5.464844zm0 0" fill="url(#h)"/><path d="m46.363281 16.375c-.726562 0-1.402343.195312-1.984375.53125 1.1875.683594 1.984375 1.964844 1.984375 3.4375 0 1.476562-.796875 2.757812-1.984375 3.441406.582032.335938 1.257813.53125 1.984375.53125 2.199219 0 3.96875-1.773437 3.96875-3.972656 0-2.195312-1.769531-3.96875-3.96875-3.96875zm0 0" fill="url(#j)"/><path d="m42.578125 23.28125c-.65625 0-1.269531.15625-1.796875.425781 1.074219.550781 1.796875 1.582031 1.796875 2.769531 0 1.191407-.722656 2.222657-1.796875 2.773438.527344.269531 1.140625.425781 1.796875.425781 1.988281 0 3.589844-1.425781 3.589844-3.199219 0-1.769531-1.601563-3.195312-3.589844-3.195312zm0 0" fill="url(#k)"/><path d="m6.613281 56.070312c-1.464843 0-2.644531-1.179687-2.644531-2.648437v-.984375c0 1.464844 1.179688 2.644531 2.644531 2.644531h50.277344c1.464844 0 2.644531-1.179687 2.644531-2.644531v.984375c0 1.46875-1.179687 2.648437-2.644531 2.648437zm0 0" fill-opacity=".235294"/><path d="m6.613281 8.4375c-1.464843 0-2.644531 1.179688-2.644531 2.648438v.992187c0-1.46875 1.179688-2.648437 2.644531-2.648437h50.277344c1.464844 0 2.644531 1.179687 2.644531 2.648437v-.992187c0-1.46875-1.179687-2.648438-2.644531-2.648438zm0 0" fill="#fff" fill-opacity=".392157"/><path d="m52.901198-147.506445h402.180344c11.686384 0 21.15423 9.467846 21.15423 21.185477v338.65516c0 11.686384-9.467846 21.154229-21.15423 21.154229h-402.180344c-11.686384 0-21.15423-9.467845-21.15423-21.154229v-338.65516c0-11.717631 9.467846-21.185477 21.15423-21.185477zm0 0" fill="none" stroke="#212121" stroke-linecap="round" stroke-width="3" transform="matrix(.125012 0 0 .125012 0 26.877566)"/><path d="m41.726562 18.761719c-1.507812.011719-2.484374 1.660156-1.710937 2.996093l1.648437 2.855469-21.726562 12.542969-1.648438-2.851562c-.796874-1.382813-2.8125-1.316407-3.519531.113281l-4.230469 8.550781c-.289062.585938-.273437 1.28125.042969 1.851562.332031.597657.941407.984376 1.621094 1.027344l9.519531.613282c1.589844.101562 2.65625-1.609376 1.859375-2.992188l-1.648437-2.851562 21.726562-12.546876 1.648438 2.855469c.796875 1.378907 2.8125 1.316407 3.519531-.113281l4.226563-8.554688c.304687-.609374.273437-1.328124-.078126-1.914062-.335937-.558594-.929687-.921875-1.582031-.960938l-9.519531-.617187c-.050781 0-.101562-.003906-.148438-.003906zm0 0" fill="url(#l)"/><path d="m41.726562 18.761719c-1.28125.007812-2.175781 1.199219-1.945312 2.378906.175781-.882813.941406-1.617187 1.945312-1.621094.046876 0 .097657 0 .148438.003907l9.519531.613281c.652344.042969 1.246094.402343 1.582031.964843.125.203126.207032.425782.25.652344.089844-.480468.007813-.980468-.25-1.410156-.335937-.558594-.929687-.921875-1.582031-.960938l-9.519531-.617187c-.050781 0-.101562-.003906-.148438-.003906zm-.75 6.246093-21.039062 12.148438-1.648438-2.851562c-.796874-1.382813-2.8125-1.316407-3.519531.113281l-4.230469 8.550781c-.195312.394531-.25.839844-.167968 1.261719.03125-.171875.089844-.34375.167968-.507813l4.230469-8.550781c.707031-1.429687 2.722657-1.492187 3.519531-.113281l1.648438 2.855468 21.039062-12.148437.921876-.625-.167969-.496094zm-18.359374 16.796876-.730469-1.28125-.164063.328124.894532 1.707032.964843 1.667968c.113281.199219.191407.40625.230469.613282.085938-.441406.027344-.921875-.230469-1.371094zm0 0" fill="#fff" fill-opacity=".588235"/><path d="m39.890625 21.710938c-.214844.535156-.203125 1.164062.125 1.734374l1.007813 1.75.640624-.371093-1.648437-2.851563c-.050781-.085937-.089844-.175781-.125-.261718zm13.230469.613281c-.019532.050781-.039063.097656-.066406.148437l-4.226563 8.550782c-.707031 1.429687-2.722656 1.496093-3.519531.113281l-1.648438-2.851563-21.726562 12.542969.636718 1.105469 21.089844-12.175782 1.648438 2.855469c.796875 1.378907 2.8125 1.316407 3.519531-.113281l4.226563-8.554688c.253906-.511718.273437-1.101562.066406-1.621093zm-42.648438 22.480469c-.21875.550781-.179687 1.179687.109375 1.703124.332031.597657.941407.980469 1.621094 1.027344l9.519531.613282c1.492188.09375 2.519532-1.40625 1.984375-2.730469-.300781.753906-1.050781 1.316406-1.984375 1.253906l-9.519531-.613281c-.679687-.042969-1.289063-.429688-1.621094-1.023438-.039062-.074218-.078125-.152344-.109375-.230468zm0 0" fill-opacity=".235294"/><path d="m333.780626-64.920582c-12.061349.093741-19.873103 13.279982-13.686193 23.966461l13.18624 22.841569-173.795903 100.334169-13.186241-22.810322c-6.374391-11.061444-22.497851-10.530244-28.153561.906163l-33.840519 68.399719c-2.312279 4.687052-2.187291 10.249021.343718 14.811085 2.655996 4.780794 7.53053 7.874248 12.967511 8.217965l76.148978 4.905782c12.717536.812422 21.247971-12.873771 14.87358-23.935214l-13.186241-22.810322 173.795903-100.365416 13.186241 22.841569c6.374392 11.030197 22.497852 10.530245 28.153562-.906163l33.809271-68.430965c2.437267-4.874535 2.187291-10.623986-.62494-15.311038-2.687244-4.468324-7.43679-7.374296-12.655042-7.686766l-76.148978-4.937029c-.406211 0-.812422-.031247-1.187386-.031247zm0 0" fill="none" stroke="#212121" stroke-linecap="round" stroke-linejoin="round" stroke-width="3" transform="matrix(.125012 0 0 .125012 0 26.877566)"/></svg>

<?xml version="1.0" encoding="UTF-8"?>
<svg xmlns="http://www.w3.org/2000/svg" xmlns:xlink="http://www.w3.org/1999/xlink" width="64pt" height="64pt" viewBox="0 0 64 64" version="1.1">
<defs>
<linearGradient id="linear0" gradientUnits="userSpaceOnUse" x1="254" y1="233.5" x2="254" y2="254.666672" gradientTransform="matrix(0.125012,0,0,0.125012,-0.00000763012,26.877566)">
<stop offset="0" style="stop-color:rgb(0%,0%,0%);stop-opacity:0.27451;"/>
<stop offset="1" style="stop-color:rgb(0%,0%,0%);stop-opacity:0;"/>
</linearGradient>
<radialGradient id="radial0" gradientUnits="userSpaceOnUse" cx="450.908936" cy="189.579361" fx="450.908936" fy="189.579361" r="21.166656" gradientTransform="matrix(0.000000348341,-0.156265,-0.281277,-0.000000203077,106.907381,127.190661)">
<stop offset="0" style="stop-color:rgb(0%,0%,0%);stop-opacity:0.313726;"/>
<stop offset="0.222222" style="stop-color:rgb(0%,0%,0%);stop-opacity:0.27451;"/>
<stop offset="1" style="stop-color:rgb(0%,0%,0%);stop-opacity:0;"/>
</radialGradient>
<radialGradient id="radial1" gradientUnits="userSpaceOnUse" cx="450.908936" cy="189.579361" fx="450.908936" fy="189.579361" r="21.166656" gradientTransform="matrix(-0.000000348341,0.156265,0.281277,0.000000203077,-43.401323,-15.054962)">
<stop offset="0" style="stop-color:rgb(0%,0%,0%);stop-opacity:0.313726;"/>
<stop offset="0.222222" style="stop-color:rgb(0%,0%,0%);stop-opacity:0.27451;"/>
<stop offset="1" style="stop-color:rgb(0%,0%,0%);stop-opacity:0;"/>
</radialGradient>
<radialGradient id="radial2" gradientUnits="userSpaceOnUse" cx="450.908936" cy="189.579361" fx="450.908936" fy="189.579361" r="21.166656" gradientTransform="matrix(-0.000000348341,-0.156265,0.281277,-0.000000203077,-43.401323,127.190661)">
<stop offset="0" style="stop-color:rgb(0%,0%,0%);stop-opacity:0.313726;"/>
<stop offset="0.222222" style="stop-color:rgb(0%,0%,0%);stop-opacity:0.27451;"/>
<stop offset="1" style="stop-color:rgb(0%,0%,0%);stop-opacity:0;"/>
</radialGradient>
<radialGradient id="radial3" gradientUnits="userSpaceOnUse" cx="450.908936" cy="189.579361" fx="450.908936" fy="189.579361" r="21.166656" gradientTransform="matrix(0.000000348341,0.156265,-0.281277,0.000000203077,106.907377,-15.054963)">
<stop offset="0" style="stop-color:rgb(0%,0%,0%);stop-opacity:0.313726;"/>
<stop offset="0.222222" style="stop-color:rgb(0%,0%,0%);stop-opacity:0.27451;"/>
<stop offset="1" style="stop-color:rgb(0%,0%,0%);stop-opacity:0;"/>
</radialGradient>
<linearGradient id="linear1" gradientUnits="userSpaceOnUse" x1="305.954559" y1="-31.87709" x2="305.954559" y2="-135.329163" gradientTransform="matrix(0.150699,0,0,0.434824,-11.708026,67.282696)">
<stop offset="0" style="stop-color:rgb(25.882354%,64.705884%,96.078432%);stop-opacity:1;"/>
<stop offset="1" style="stop-color:rgb(62.352943%,65.882355%,85.490197%);stop-opacity:1;"/>
</linearGradient>
<linearGradient id="linear2" gradientUnits="userSpaceOnUse" x1="960" y1="1615.118164" x2="960" y2="1015.118103" gradientTransform="matrix(0.0330761,0,0,0.0330761,0,2.646117)">
<stop offset="0" style="stop-color:rgb(21.568628%,27.843139%,30.980393%);stop-opacity:1;"/>
<stop offset="1" style="stop-color:rgb(27.058825%,35.294119%,39.215687%);stop-opacity:1;"/>
</linearGradient>
<linearGradient id="linear3" gradientUnits="userSpaceOnUse" x1="1400" y1="695.118103" x2="1400" y2="455.118103" gradientTransform="matrix(0.0330761,0,0,0.0330761,0.0560744,1.323073)">
<stop offset="0" style="stop-color:rgb(99.215686%,84.705883%,20.784314%);stop-opacity:1;"/>
<stop offset="1" style="stop-color:rgb(100%,94.509804%,46.27451%);stop-opacity:1;"/>
</linearGradient>
<linearGradient id="linear4" gradientUnits="userSpaceOnUse" x1="1400" y1="695.118103" x2="1400" y2="455.118103" gradientTransform="matrix(0.029926,0,0,0.0266446,0.680755,11.154726)">
<stop offset="0" style="stop-color:rgb(99.215686%,84.705883%,20.784314%);stop-opacity:1;"/>
<stop offset="1" style="stop-color:rgb(100%,94.509804%,46.27451%);stop-opacity:1;"/>
</linearGradient>
<linearGradient id="linear5" gradientUnits="userSpaceOnUse" x1="958.304688" y1="1528.681641" x2="960" y2="255.118118" gradientTransform="matrix(0.0330761,0,0,0.0330761,0.0560744,1.323073)">
<stop offset="0" style="stop-color:rgb(74.117649%,74.117649%,74.117649%);stop-opacity:1;"/>
<stop offset="1" style="stop-color:rgb(87.843138%,87.843138%,87.843138%);stop-opacity:1;"/>
</linearGradient>
</defs>
<g id="surface1">
<path style=" stroke:none;fill-rule:nonzero;fill:url(#linear0);" d="M 9.261719 56.066406 L 54.246094 56.066406 L 54.246094 58.640625 L 9.261719 58.640625 Z M 9.261719 56.066406 "/>
<path style=" stroke:none;fill-rule:nonzero;fill:url(#radial0);" d="M 54.246094 56.066406 L 59.535156 56.066406 L 59.535156 53.421875 L 54.246094 53.421875 Z M 54.246094 56.066406 "/>
<path style=" stroke:none;fill-rule:nonzero;fill:url(#radial1);" d="M 9.261719 56.066406 L 3.96875 56.066406 L 3.96875 58.714844 L 9.261719 58.714844 Z M 9.261719 56.066406 "/>
<path style=" stroke:none;fill-rule:nonzero;fill:url(#radial2);" d="M 9.261719 56.066406 L 3.96875 56.066406 L 3.96875 53.421875 L 9.261719 53.421875 Z M 9.261719 56.066406 "/>
<path style=" stroke:none;fill-rule:nonzero;fill:url(#radial3);" d="M 54.246094 56.066406 L 59.535156 56.066406 L 59.535156 58.714844 L 54.246094 58.714844 Z M 54.246094 56.066406 "/>
<path style=" stroke:none;fill-rule:nonzero;fill:url(#linear1);" d="M 6.613281 8.4375 L 56.890625 8.4375 C 58.351562 8.4375 59.535156 9.621094 59.535156 11.085938 L 59.535156 53.421875 C 59.535156 54.882812 58.351562 56.066406 56.890625 56.066406 L 6.613281 56.066406 C 5.152344 56.066406 3.96875 54.882812 3.96875 53.421875 L 3.96875 11.085938 C 3.96875 9.621094 5.152344 8.4375 6.613281 8.4375 Z M 6.613281 8.4375 "/>
<path style=" stroke:none;fill-rule:nonzero;fill:url(#linear2);" d="M 3.96875 41.515625 L 3.96875 53.421875 C 3.96875 54.886719 5.148438 56.066406 6.613281 56.066406 L 56.890625 56.066406 C 58.355469 56.066406 59.535156 54.886719 59.535156 53.421875 L 59.535156 41.515625 C 48.535156 47.953125 44.964844 40.78125 40.480469 39.605469 C 35.679688 38.347656 34.761719 44.058594 29.917969 43.476562 C 25.074219 42.894531 18.902344 35.59375 14.4375 36.050781 C 9.976562 36.511719 7.730469 39.144531 3.96875 41.515625 Z M 3.96875 41.515625 "/>
<path style=" stroke:none;fill-rule:nonzero;fill:url(#linear3);" d="M 46.363281 16.375 C 45.636719 16.375 44.960938 16.570312 44.378906 16.90625 C 45.566406 17.589844 46.363281 18.871094 46.363281 20.34375 C 46.363281 21.820312 45.566406 23.101562 44.378906 23.785156 C 44.960938 24.121094 45.636719 24.316406 46.363281 24.316406 C 48.5625 24.316406 50.332031 22.542969 50.332031 20.34375 C 50.332031 18.148438 48.5625 16.375 46.363281 16.375 Z M 46.363281 16.375 "/>
<path style=" stroke:none;fill-rule:nonzero;fill:url(#linear4);" d="M 42.578125 23.28125 C 41.921875 23.28125 41.308594 23.4375 40.78125 23.707031 C 41.855469 24.257812 42.578125 25.289062 42.578125 26.476562 C 42.578125 27.667969 41.855469 28.699219 40.78125 29.25 C 41.308594 29.519531 41.921875 29.675781 42.578125 29.675781 C 44.566406 29.675781 46.167969 28.25 46.167969 26.476562 C 46.167969 24.707031 44.566406 23.28125 42.578125 23.28125 Z M 42.578125 23.28125 "/>
<path style=" stroke:none;fill-rule:nonzero;fill:rgb(0%,0%,0%);fill-opacity:0.235294;" d="M 6.613281 56.070312 C 5.148438 56.070312 3.96875 54.890625 3.96875 53.421875 L 3.96875 52.4375 C 3.96875 53.902344 5.148438 55.082031 6.613281 55.082031 L 56.890625 55.082031 C 58.355469 55.082031 59.535156 53.902344 59.535156 52.4375 L 59.535156 53.421875 C 59.535156 54.890625 58.355469 56.070312 56.890625 56.070312 Z M 6.613281 56.070312 "/>
<path style=" stroke:none;fill-rule:nonzero;fill:rgb(100%,100%,100%);fill-opacity:0.392157;" d="M 6.613281 8.4375 C 5.148438 8.4375 3.96875 9.617188 3.96875 11.085938 L 3.96875 12.078125 C 3.96875 10.609375 5.148438 9.429688 6.613281 9.429688 L 56.890625 9.429688 C 58.355469 9.429688 59.535156 10.609375 59.535156 12.078125 L 59.535156 11.085938 C 59.535156 9.617188 58.355469 8.4375 56.890625 8.4375 Z M 6.613281 8.4375 "/>
<path style="fill:none;stroke-width:3;stroke-linecap:round;stroke-linejoin:miter;stroke:rgb(12.941177%,12.941177%,12.941177%);stroke-opacity:1;stroke-miterlimit:4;" d="M 52.901198 -147.506445 L 455.081542 -147.506445 C 466.767926 -147.506445 476.235772 -138.038599 476.235772 -126.320968 L 476.235772 212.334192 C 476.235772 224.020576 466.767926 233.488421 455.081542 233.488421 L 52.901198 233.488421 C 41.214814 233.488421 31.746968 224.020576 31.746968 212.334192 L 31.746968 -126.320968 C 31.746968 -138.038599 41.214814 -147.506445 52.901198 -147.506445 Z M 52.901198 -147.506445 " transform="matrix(0.125012,0,0,0.125012,0,26.877566)"/>
<path style=" stroke:none;fill-rule:nonzero;fill:url(#linear5);" d="M 41.726562 18.761719 C 40.21875 18.773438 39.242188 20.421875 40.015625 21.757812 L 41.664062 24.613281 L 19.9375 37.15625 L 18.289062 34.304688 C 17.492188 32.921875 15.476562 32.988281 14.769531 34.417969 L 10.539062 42.96875 C 10.25 43.554688 10.265625 44.25 10.582031 44.820312 C 10.914062 45.417969 11.523438 45.804688 12.203125 45.847656 L 21.722656 46.460938 C 23.3125 46.5625 24.378906 44.851562 23.582031 43.46875 L 21.933594 40.617188 L 43.660156 28.070312 L 45.308594 30.925781 C 46.105469 32.304688 48.121094 32.242188 48.828125 30.8125 L 53.054688 22.257812 C 53.359375 21.648438 53.328125 20.929688 52.976562 20.34375 C 52.640625 19.785156 52.046875 19.421875 51.394531 19.382812 L 41.875 18.765625 C 41.824219 18.765625 41.773438 18.761719 41.726562 18.761719 Z M 41.726562 18.761719 "/>
<path style=" stroke:none;fill-rule:nonzero;fill:rgb(100%,100%,100%);fill-opacity:0.588235;" d="M 41.726562 18.761719 C 40.445312 18.769531 39.550781 19.960938 39.78125 21.140625 C 39.957031 20.257812 40.722656 19.523438 41.726562 19.519531 C 41.773438 19.519531 41.824219 19.519531 41.875 19.523438 L 51.394531 20.136719 C 52.046875 20.179688 52.640625 20.539062 52.976562 21.101562 C 53.101562 21.304688 53.183594 21.527344 53.226562 21.753906 C 53.316406 21.273438 53.234375 20.773438 52.976562 20.34375 C 52.640625 19.785156 52.046875 19.421875 51.394531 19.382812 L 41.875 18.765625 C 41.824219 18.765625 41.773438 18.761719 41.726562 18.761719 Z M 40.976562 25.007812 L 19.9375 37.15625 L 18.289062 34.304688 C 17.492188 32.921875 15.476562 32.988281 14.769531 34.417969 L 10.539062 42.96875 C 10.34375 43.363281 10.289062 43.808594 10.371094 44.230469 C 10.402344 44.058594 10.460938 43.886719 10.539062 43.722656 L 14.769531 35.171875 C 15.476562 33.742188 17.492188 33.679688 18.289062 35.058594 L 19.9375 37.914062 L 40.976562 25.765625 L 41.898438 25.140625 L 41.730469 24.644531 Z M 22.617188 41.804688 L 21.886719 40.523438 L 21.722656 40.851562 L 22.617188 42.558594 L 23.582031 44.226562 C 23.695312 44.425781 23.773438 44.632812 23.8125 44.839844 C 23.898438 44.398438 23.839844 43.917969 23.582031 43.46875 Z M 22.617188 41.804688 "/>
<path style=" stroke:none;fill-rule:nonzero;fill:rgb(0%,0%,0%);fill-opacity:0.235294;" d="M 39.890625 21.710938 C 39.675781 22.246094 39.6875 22.875 40.015625 23.445312 L 41.023438 25.195312 L 41.664062 24.824219 L 40.015625 21.972656 C 39.964844 21.886719 39.925781 21.796875 39.890625 21.710938 Z M 53.121094 22.324219 C 53.101562 22.375 53.082031 22.421875 53.054688 22.472656 L 48.828125 31.023438 C 48.121094 32.453125 46.105469 32.519531 45.308594 31.136719 L 43.660156 28.285156 L 21.933594 40.828125 L 22.570312 41.933594 L 43.660156 29.757812 L 45.308594 32.613281 C 46.105469 33.992188 48.121094 33.929688 48.828125 32.5 L 53.054688 23.945312 C 53.308594 23.433594 53.328125 22.84375 53.121094 22.324219 Z M 10.472656 44.804688 C 10.253906 45.355469 10.292969 45.984375 10.582031 46.507812 C 10.914062 47.105469 11.523438 47.488281 12.203125 47.535156 L 21.722656 48.148438 C 23.214844 48.242188 24.242188 46.742188 23.707031 45.417969 C 23.40625 46.171875 22.65625 46.734375 21.722656 46.671875 L 12.203125 46.058594 C 11.523438 46.015625 10.914062 45.628906 10.582031 45.035156 C 10.542969 44.960938 10.503906 44.882812 10.472656 44.804688 Z M 10.472656 44.804688 "/>
<path style="fill:none;stroke-width:3;stroke-linecap:round;stroke-linejoin:round;stroke:rgb(12.941177%,12.941177%,12.941177%);stroke-opacity:1;stroke-miterlimit:4;" d="M 333.780626 -64.920582 C 321.719277 -64.826841 313.907523 -51.6406 320.094433 -40.954121 L 333.280673 -18.112552 L 159.48477 82.221617 L 146.298529 59.411295 C 139.924138 48.349851 123.800678 48.881051 118.144968 60.317458 L 84.304449 128.717177 C 81.99217 133.404229 82.117158 138.966198 84.648167 143.528262 C 87.304163 148.309056 92.178697 151.40251 97.615678 151.746227 L 173.764656 156.652009 C 186.482192 157.464431 195.012627 143.778238 188.638236 132.716795 L 175.451995 109.906473 L 349.247898 9.541057 L 362.434139 32.382626 C 368.808531 43.412823 384.931991 42.912871 390.587701 31.476463 L 424.396972 -36.954502 C 426.834239 -41.829037 426.584263 -47.578488 423.772032 -52.26554 C 421.084788 -56.733864 416.335242 -59.639836 411.11699 -59.952306 L 334.968012 -64.889335 C 334.561801 -64.889335 334.15559 -64.920582 333.780626 -64.920582 Z M 333.780626 -64.920582 " transform="matrix(0.125012,0,0,0.125012,0,26.877566)"/>
</g>
</svg>
